!!!OTL: "Sehnsucht" MEIN SCHATZ IS NIT DA
!!!ARE: Europa, Mitteleuropa, Tirol
!!!SCT: Z1238
!!!YEM: Copyright 1995, estate of Helmut Schaffrath.
**kern
*ICvox
*Ivox
*M3/4
*k[]
*C:
{8.c
16d
=1
4e
4.e
8f
=2
8g
8e
4.a}
{8g
=3
8f
8d
4.g
8f
=4
8e
8d
8c
8B}
{8c
8d
=5
4e
4.e
8f
=6
8g
8e
4.a}
{8g
=7
8f
8d
4.g
8f
=8
2e}
{4g
=9
4g
8e
8cc
4g
=10
8a
8g
8f
8d
4B}
=11
{4g
8f
8dd
4b
=12
8cc
8ee
4dd
4cc}
=13
{4g
8e
8cc
4g
=14
8a
8g
8f
8d
4B}
=15
{4g
8f
8dd
4b
=16
2cc}
{[4cc
=17
4cc]
8.cc
16b
8.cc
16a
=18
8.g
16ee
4.ee}
{8cc
=19
8b
8f
4.d
8b
=20
8.cc
16b
8.cc
16dd
4ee}
=21
{4cc
8.cc
16b
8.cc
16a
=22
8g
8ee
4.ee}
{8cc
=23
8b
8f
8d
8b
8d
8b
=24
4cc
4r}
==
!!!AGN: Liebes - Lied
!! Die letzten 16 Takte werden auf die Silbe 'da' gesungen.
!!!ONB: ESAC (Essen Associative Code) Database: ZUCCAL
!!!AMT: simple triple
!!!AIN: vox
!!!EED: Helmut Schaffrath
!!!EEV: 1.0
*-
